X: 1
T: Jack Broke Da Prison Door
M: 4/4
L: 1/8
R: reel
K: Gmaj
G2BG BdBG|ABAB dBAB|G2BG BdBG|ABAG {EF}E2D2:|
|:g2gd edBd|g2gd ea{b}af|g2gd edBG|ABAG {EF}E2D2:||
